!! 00000] TT[00
!! NN
!!!OTL: Lo yang qiao
!!!ARE: Asia, China,ÿHunan, Chenxi
!! Ethnic Group: Han
!! I, 536, 1)
!!!SCT: C0122
!!!YEM: Copyright 1995, estate of Helmut Schaffrath.
**kern
*ICvox
*Ivox
*M2/4
*k[b-]
*F:
{8dd
8ff
16dd
16cc
16a
16cc
=1
8dd
4dd
8cc
=2
8ff
16dd
16cc
8a
8cc
=3
8dd
8cc
4a}
=4
{8dd
16a
16cc
8dd
8cc
=5
8a
4cc
8a
=6
8.a
16cc
8f
8g
=7
8cc
4.a}
=8
{16g
16a
16g
16f
8d
8f
=9
8a
8g
8r
16dd
16dd
=10
16dd
16ff
16dd
16cc
8cc
8a
=11
8cc
16a
16g
8f
8g}
=12
{8r
8a
8f
8g
=13
8cc
8a
4cc
=14
8g
16a
16cc
8g
8f
=15
2d}
==
!!!AGN: Xiaodiao. Qiongfu duibi
!! neues Volkslied
!!!ONB: ESAC (Essen Associative Code) Database: CHINA
!!!AMT: simple duple
!!!AIN: vox
!!!EED: Helmut Schaffrath
!!!EEV: 1.0
*-
